X:11
C:Page 06
T:Garland of Roses. MBe.11
S:Matthew Betham MS, Towcett Cumbria, 1815
O:England;Cumbria;Towcett
Z:VMP – Hugh Taylor, 2012
M:6/8
L:1/8
Q:3/8=60
R:.Air
N:Garland of Roses = the Catholic Rosary
N:The B part has 10 bars
K:G
d|d>Bd dga|bag gfe|dBd d>ed|d>gc {B}A2 d|
dBd dga|b>ag d’>bg|efg {fe}dfB|AGA G2:|
|:g/a/|b>ag gBd|b>ag gBd|b>ag fab|eag fd d|
gfg ece|dBg d{c}B{A}G|gfg ece|dBg d c/B/A/G/|
GBd gbd’|d>ef g2:|

